lib/svgs/start-date.svg

<svg xmlns="http://www.w3.org/2000/svg" viewBox="0 0 16 16">
    <path d="M13.294 1.412h-1.44V.6a.6.6 0 1 0-1.2 0v.812H5.346V.6a.6.6 0 1 0-1.2 0v.812h-1.44c-1.1 0-2 .9-2 2V14c0 1.1.9 2 2 2h10.588c1.1 0 2-.9 2-2V3.412c0-1.1-.9-2-2-2m0 13.388H2.706a.81.81 0 0 1-.8-.8V6.282h12.188V14a.81.81 0 0 1-.8.8M2.706 2.612h1.44v.426a.6.6 0 0 0 1.2 0v-.426h5.308v.426a.6.6 0 1 0 1.2 0v-.426h1.44c.434 0 .8.366.8.8v1.67H1.906v-1.67c0-.434.366-.8.8-.8M4.937 7.5H4.5a1 1 0 0 0-1 1v.437a1 1 0 0 0 1 1h.437a1 1 0 0 0 1-1V8.5a1 1 0 0 0-1-1"/>
</svg>

<?xml version="1.0" encoding="UTF-8"?>
<svg width="16px" height="16px" viewBox="0 0 16 16" version="1.1" xmlns="http://www.w3.org/2000/svg" xmlns:xlink="http://www.w3.org/1999/xlink">
    <!-- Generator: sketchtool 51.3 (57544) - http://www.bohemiancoding.com/sketch -->
    <title>date/start-date</title>
    <desc>Created with sketchtool.</desc>
    <defs></defs>
    <g id="Icons" stroke="none" stroke-width="1" fill="none" fill-rule="evenodd">
        <g id="Web" transform="translate(-387.000000, -1232.000000)" fill="#000000">
            <g id="date/start-date" transform="translate(387.000000, 1232.000000)">
                <path d="M13.294,1.412 L11.854,1.412 L11.854,0.6 C11.854,0.269 11.586,0 11.254,0 C10.922,0 10.654,0.269 10.654,0.6 L10.654,1.412 L5.346,1.412 L5.346,0.6 C5.346,0.269 5.078,0 4.746,0 C4.415,0 4.146,0.269 4.146,0.6 L4.146,1.412 L2.706,1.412 C1.606,1.412 0.706,2.312 0.706,3.412 L0.706,14 C0.706,15.1 1.606,16 2.706,16 L13.294,16 C14.394,16 15.294,15.1 15.294,14 L15.294,3.412 C15.294,2.312 14.394,1.412 13.294,1.412 M13.294,14.8 L2.706,14.8 C2.272,14.8 1.906,14.434 1.906,14 L1.906,6.282 L14.094,6.282 L14.094,14 C14.094,14.434 13.728,14.8 13.294,14.8 M2.706,2.612 L4.146,2.612 L4.146,3.038 C4.146,3.369 4.415,3.638 4.746,3.638 C5.078,3.638 5.346,3.369 5.346,3.038 L5.346,2.612 L10.654,2.612 L10.654,3.038 C10.654,3.369 10.922,3.638 11.254,3.638 C11.586,3.638 11.854,3.369 11.854,3.038 L11.854,2.612 L13.294,2.612 C13.728,2.612 14.094,2.978 14.094,3.412 L14.094,5.082 L1.906,5.082 L1.906,3.412 C1.906,2.978 2.272,2.612 2.706,2.612 M4.937,7.5 L4.5,7.5 C3.947,7.5 3.5,7.948 3.5,8.5 L3.5,8.937 C3.5,9.49 3.947,9.937 4.5,9.937 L4.937,9.937 C5.489,9.937 5.937,9.49 5.937,8.937 L5.937,8.5 C5.937,7.948 5.489,7.5 4.937,7.5" id="Shape"></path>
            </g>
        </g>
    </g>
</svg>
